X: 600
T: Goin' Up Caney
C:traditional
B: jims roots
M:4/4
L:1/8
Q: 1/4=100
K:Gmaj
V:1 
|: DE | "G"G2 ed Bdde | gfed B2dB | G2 ed B2dB | "D"cBAG "G"EGDF |
G2ed B2de | gfed B2 dB | G2ed BdAB | [1 "D"cBAG "G"E2 :|[2"D"cBAG "G"EGBd ||
|:"Em"!slide![e2e2][e2e2][e2e2][e2e2] | "C"eged "G"B2d2 | "Em"e2ge dBAG| "G"ABAG EGGB |
"Em"J[e2e2][e2e2][e2e2][e2e2] | "C"eged "G"Bdde | efge dBGA | [1 "D"BAAG "G"EGBd :|
V:2 "D"BGAG "G"E2 [G,2G2
 |]
% abcbook-tune_id 6298c25df9ee07849cc0e9a9


% abcbook-boost 0
% abcbook-tablature 
% abcbook-transpose 
% abcbook-lastupdated 1654178398260
% abcbook-soundfonts 
% abcbook-repeats 1


